; generated by Slic3r 1.2.9 on 2022-01-07 at 13:41:06

; external perimeters extrusion width = 0.40mm
; perimeters extrusion width = 0.40mm
; infill extrusion width = 0.40mm
; solid infill extrusion width = 0.40mm
; top infill extrusion width = 0.40mm

M107
M104 S250 ; set temperature
M83
T0
M116


M109 S250 ; wait for temperature to be reached
G21 ; set units to millimeters
G90 ; use absolute coordinates
M83 ; use relative distances for extrusion
G1 E-3.20000 F3000.00000
G1 Z0.400 F15000.000
G1 X0.000 Y20.700 F15000.000
G1 Z0.350 F15000.000
G1 E3.20000 F3000.00000
G1 X-34.950 Y20.700 E3.08930 F960.000
G1 X-36.740 Y20.304 E0.16202
G1 X-38.197 Y19.192 E0.16202
G1 X-39.050 Y17.570 E0.16202
G1 X-39.200 Y16.450 E0.09986
G1 X-39.200 Y-16.450 E2.90809
G1 X-38.804 Y-18.240 E0.16202
G1 X-37.692 Y-19.697 E0.16202
G1 X-36.070 Y-20.550 E0.16202
G1 X-34.950 Y-20.700 E0.09986
G1 X34.950 Y-20.700 E6.17860
G1 X36.740 Y-20.304 E0.16202
G1 X38.197 Y-19.192 E0.16202 F960.000
G1 X39.050 Y-17.570 E0.16202
G1 X39.200 Y-16.450 E0.09986
G1 X39.200 Y16.450 E2.90809
G1 X38.804 Y18.240 E0.16202
G1 X37.692 Y19.697 E0.16202
G1 X36.070 Y20.550 E0.16202
G1 X34.950 Y20.700 E0.09986
G1 X0.060 Y20.700 E3.08399
G1 X0.060 Y20.075 F15000.000
G1 X-34.950 Y20.075 E3.09460 F960.000
G1 X-36.594 Y19.680 E0.14948
G1 X-37.881 Y18.583 E0.14948
G1 X-38.575 Y16.450 E0.19825
G1 X-38.575 Y-16.450 E2.90809
G1 X-38.180 Y-18.094 E0.14948
G1 X-37.083 Y-19.381 E0.14948
G1 X-34.950 Y-20.075 E0.19825
G1 X34.950 Y-20.075 E6.17860
G1 X36.594 Y-19.680 E0.14948
G1 X37.881 Y-18.583 E0.14948 F960.000
G1 X38.575 Y-16.450 E0.19825
G1 X38.575 Y16.450 E2.90809
G1 X38.180 Y18.094 E0.14948
G1 X37.083 Y19.381 E0.14948
G1 X34.950 Y20.075 E0.19825
G1 X0.120 Y20.075 E3.07869
G1 E-3.20000 F3000.00000
G1 Z0.750 F15000.000
G1 X0.120 Y6.650 F15000.000
G1 Z0.350 F15000.000
G1 E3.20000 F3000.00000
G1 X-11.650 Y6.650 E1.04035 F960.000
G1 X-11.650 Y-6.650 E1.17557
G1 X11.650 Y-6.650 E2.05949 F960.000
G1 X11.650 Y6.650 E1.17557
G1 X0.180 Y6.650 E1.01384
G1 X0.180 Y6.025 F15000.000
G1 X-11.025 Y6.025 E0.99042 F960.000
G1 X-11.025 Y-6.025 E1.06510
G1 X11.025 Y-6.025 E1.94902 F960.000
G1 X11.025 Y6.025 E1.06510
G1 X0.240 Y6.025 E0.95330
G1 X0.240 Y5.400 F15000.000
G1 X-10.400 Y5.400 E0.94049 F960.000
G1 X-10.400 Y-5.400 E0.95463
G1 X10.400 Y-5.400 E1.83855 F960.000
G1 X10.400 Y5.400 E0.95463
G1 X0.300 Y5.400 E0.89276
G1 X0.040 Y5.746 F15000.000
G1 E-3.20000 F3000.00000
G1 Z0.750 F15000.000
G1 X8.150 Y-14.850 F15000.000
G1 Z0.350 F15000.000
G1 E3.20000 F3000.00000
G1 X33.350 Y-14.850 E2.22752 F960.000
G1 X33.350 Y14.850 E2.62528
G1 X-33.350 Y14.850 E5.89578
G1 X-33.350 Y-14.850 E2.62528
G1 X-8.150 Y-14.850 E2.22752
G1 X-8.150 Y-11.750 E0.27402
G1 X8.150 Y-11.750 E1.44075 F960.000
G1 X8.150 Y-14.790 E0.26871
G1 X7.525 Y-14.790 F15000.000
G1 X7.525 Y-15.475 E0.06054 F960.000
G1 X33.975 Y-15.475 E2.33799
G1 X33.975 Y15.475 E2.73575
G1 X-33.975 Y15.475 E6.00625
G1 X-33.975 Y-15.475 E2.73575
G1 X-7.525 Y-15.475 E2.33799
G1 X-7.525 Y-12.375 E0.27402
G1 X7.525 Y-12.375 E1.33028 F960.000
G1 X7.525 Y-14.730 E0.20817
G1 X6.900 Y-14.730 F15000.000
G1 X6.900 Y-16.100 E0.12108 F960.000
G1 X34.600 Y-16.100 E2.44846
G1 X34.600 Y16.100 E2.84622
G1 X-34.600 Y16.100 E6.11672
G1 X-34.600 Y-16.100 E2.84622
G1 X-6.900 Y-16.100 E2.44846
G1 X-6.900 Y-13.000 E0.27402
G1 X6.900 Y-13.000 E1.21981 F960.000
G1 X6.900 Y-14.670 E0.14763
G1 X7.246 Y-14.930 F15000.000
G1 X8.528 Y-11.928 F15000.000
G1 X32.972 Y12.515 E3.07515 F960.000
G1 X32.972 Y11.626 E0.07912
G1 X8.528 Y-12.817 E3.07515
G1 X8.528 Y-13.707 E0.07912
G1 X32.972 Y10.737 E3.07515
G1 X32.972 Y9.847 E0.07912
G1 X8.653 Y-14.472 E3.05950
G1 X9.542 Y-14.472 E0.07912
G1 X32.972 Y8.958 E2.94761
G1 X32.972 Y8.068 E0.07912
G1 X10.432 Y-14.472 E2.83572
G1 X11.321 Y-14.472 E0.07912
G1 X32.972 Y7.179 E2.72382
G1 X32.972 Y6.290 E0.07912
G1 X12.210 Y-14.472 E2.61193
G1 X13.100 Y-14.472 E0.07912
G1 X32.972 Y5.400 E2.50004
G1 X32.972 Y4.511 E0.07912
G1 X13.989 Y-14.472 E2.38814
G1 X14.879 Y-14.472 E0.07912
G1 X32.972 Y3.621 E2.27625
G1 X32.972 Y2.732 E0.07912
G1 X15.768 Y-14.472 E2.16436
G1 X16.657 Y-14.472 E0.07912
G1 X32.972 Y1.843 E2.05246
G1 X32.972 Y0.953 E0.07912
G1 X17.547 Y-14.472 E1.94057
G1 X18.436 Y-14.472 E0.07912
G1 X32.972 Y0.064 E1.82868
G1 X32.972 Y-0.826 E0.07912
G1 X19.326 Y-14.472 E1.71678
G1 X20.215 Y-14.472 E0.07912
G1 X32.972 Y-1.715 E1.60489
G1 X32.972 Y-2.604 E0.07912
G1 X21.104 Y-14.472 E1.49300
G1 X21.994 Y-14.472 E0.07912
G1 X32.972 Y-3.494 E1.38110
G1 X32.972 Y-4.383 E0.07912
G1 X22.883 Y-14.472 E1.26921
G1 X23.773 Y-14.472 E0.07912
G1 X32.972 Y-5.273 E1.15732
G1 X32.972 Y-6.162 E0.07912
G1 X24.662 Y-14.472 E1.04543
G1 X25.551 Y-14.472 E0.07912
G1 X32.972 Y-7.051 E0.93353
G1 X32.972 Y-7.941 E0.07912
G1 X26.441 Y-14.472 E0.82164
G1 X27.330 Y-14.472 E0.07912
G1 X32.972 Y-8.830 E0.70975
G1 X32.972 Y-9.720 E0.07912
G1 X28.220 Y-14.472 E0.59785
G1 X29.109 Y-14.472 E0.07912
G1 X32.972 Y-10.609 E0.48596
G1 X32.972 Y-11.498 E0.07912
G1 X29.998 Y-14.472 E0.37407
G1 X30.888 Y-14.472 E0.07912
G1 X32.972 Y-12.388 E0.26217
G1 X32.972 Y-13.277 E0.07912
G1 X31.777 Y-14.472 E0.15028
G1 X32.667 Y-14.472 E0.07912
G1 X32.972 Y-14.167 E0.03839
G1 X12.028 Y-6.649 F15000.000
G1 X32.972 Y14.294 E2.63482 F960.000
G1 X32.972 Y13.405 E0.07912
G1 X8.195 Y-11.372 E3.11707
G1 X11.649 Y-7.028 F15000.000
G1 X7.306 Y-11.372 E0.54642 F960.000
G1 X6.416 Y-11.372 E0.07912
G1 X10.760 Y-7.028 E0.54642
G1 X9.870 Y-7.028 E0.07912
G1 X5.527 Y-11.372 E0.54642
G1 X4.638 Y-11.372 E0.07912
G1 X8.981 Y-7.028 E0.54642
G1 X8.091 Y-7.028 E0.07912
G1 X3.748 Y-11.372 E0.54642
G1 X2.859 Y-11.372 E0.07912
G1 X7.202 Y-7.028 E0.54642
G1 X6.313 Y-7.028 E0.07912
G1 X1.969 Y-11.372 E0.54642
G1 X1.080 Y-11.372 E0.07912
G1 X5.423 Y-7.028 E0.54642
G1 X4.534 Y-7.028 E0.07912
G1 X0.191 Y-11.372 E0.54642
G1 X-0.699 Y-11.372 E0.07912
G1 X3.644 Y-7.028 E0.54642
G1 X2.755 Y-7.028 E0.07912
G1 X-1.588 Y-11.372 E0.54642
G1 X-2.478 Y-11.372 E0.07912
G1 X1.866 Y-7.028 E0.54642
G1 X0.976 Y-7.028 E0.07912
G1 X-3.367 Y-11.372 E0.54642
G1 X-4.256 Y-11.372 E0.07912
G1 X0.087 Y-7.028 E0.54642
G1 X-0.803 Y-7.028 E0.07912
G1 X-5.146 Y-11.372 E0.54642
G1 X-6.035 Y-11.372 E0.07912
G1 X-1.692 Y-7.028 E0.54642
G1 X-2.581 Y-7.028 E0.07912
G1 X-6.925 Y-11.372 E0.54642
G1 X-7.814 Y-11.372 E0.07912
G1 X-3.471 Y-7.028 E0.54642
G1 X-4.360 Y-7.028 E0.07912
G1 X-11.803 Y-14.472 E0.93642
G1 X-10.914 Y-14.472 E0.07912
G1 X-8.528 Y-12.086 E0.30014
G1 X-8.528 Y-12.975 E0.07912
G1 X-10.025 Y-14.472 E0.18825
G1 X-9.135 Y-14.472 E0.07912
G1 X-8.528 Y-13.865 E0.07635
G1 X-12.693 Y-14.472 F15000.000
G1 X-5.250 Y-7.028 E0.93642 F960.000
G1 X-6.139 Y-7.028 E0.07912
G1 X-13.582 Y-14.472 E0.93642
G1 X-14.472 Y-14.472 E0.07912
G1 X-7.028 Y-7.028 E0.93642
G1 X-7.918 Y-7.028 E0.07912
G1 X-15.361 Y-14.472 E0.93642
G1 X-16.250 Y-14.472 E0.07912
G1 X-8.807 Y-7.028 E0.93642
G1 X-9.697 Y-7.028 E0.07912
G1 X-17.140 Y-14.472 E0.93642
G1 X-18.029 Y-14.472 E0.07912
G1 X-10.586 Y-7.028 E0.93642
G1 X-11.475 Y-7.028 E0.07912
G1 X-18.919 Y-14.472 E0.93642
G1 X-19.808 Y-14.472 E0.07912
G1 X-12.028 Y-6.692 E0.97875
G1 X-12.028 Y-5.803 E0.07912
G1 X-20.697 Y-14.472 E1.09064
G1 X-21.587 Y-14.472 E0.07912
G1 X-12.028 Y-4.913 E1.20253
G1 X-12.028 Y-4.024 E0.07912
G1 X-22.476 Y-14.472 E1.31443
G1 X-23.366 Y-14.472 E0.07912
G1 X-12.028 Y-3.134 E1.42632
G1 X-12.028 Y-2.245 E0.07912
G1 X-24.255 Y-14.472 E1.53821
G1 X-25.144 Y-14.472 E0.07912
G1 X-12.028 Y-1.356 E1.65011
G1 X-12.028 Y-0.466 E0.07912
G1 X-26.034 Y-14.472 E1.76200
G1 X-26.923 Y-14.472 E0.07912
G1 X-12.028 Y0.423 E1.87389
G1 X-12.028 Y1.313 E0.07912
G1 X-27.813 Y-14.472 E1.98579
G1 X-28.702 Y-14.472 E0.07912
G1 X-12.028 Y2.202 E2.09768
G1 X-12.028 Y3.091 E0.07912
G1 X-29.591 Y-14.472 E2.20957
G1 X-30.481 Y-14.472 E0.07912
G1 X-12.028 Y3.981 E2.32147
G1 X-12.028 Y4.870 E0.07912
G1 X-31.370 Y-14.472 E2.43336
G1 X-32.260 Y-14.472 E0.07912
G1 X-12.028 Y5.760 E2.54525
G1 X-12.028 Y6.649 E0.07912
G1 X-32.972 Y-14.294 E2.63482
G1 X-32.972 Y-13.405 E0.07912
G1 X-5.095 Y14.472 E3.50707
G1 X-4.206 Y14.472 E0.07912
G1 X-11.649 Y7.028 E0.93642
G1 X-10.760 Y7.028 E0.07912
G1 X-3.316 Y14.472 E0.93642
G1 X-2.427 Y14.472 E0.07912
G1 X-9.870 Y7.028 E0.93642
G1 X-8.981 Y7.028 E0.07912
G1 X-1.538 Y14.472 E0.93642
G1 X-0.648 Y14.472 E0.07912
G1 X-8.091 Y7.028 E0.93642
G1 X-7.202 Y7.028 E0.07912
G1 X0.241 Y14.472 E0.93642
G1 X1.131 Y14.472 E0.07912
G1 X-6.313 Y7.028 E0.93642
G1 X-5.423 Y7.028 E0.07912
G1 X2.020 Y14.472 E0.93642
G1 X2.909 Y14.472 E0.07912
G1 X-4.534 Y7.028 E0.93642
G1 X-3.644 Y7.028 E0.07912
G1 X3.799 Y14.472 E0.93642
G1 X4.688 Y14.472 E0.07912
G1 X-2.755 Y7.028 E0.93642
G1 X-1.866 Y7.028 E0.07912
G1 X5.578 Y14.472 E0.93642
G1 X6.467 Y14.472 E0.07912
G1 X-0.976 Y7.028 E0.93642
G1 X-0.087 Y7.028 E0.07912
G1 X7.356 Y14.472 E0.93642
G1 X8.246 Y14.472 E0.07912
G1 X0.803 Y7.028 E0.93642
G1 X1.692 Y7.028 E0.07912
G1 X9.135 Y14.472 E0.93642
G1 X10.025 Y14.472 E0.07912
G1 X2.581 Y7.028 E0.93642
G1 X3.471 Y7.028 E0.07912
G1 X10.914 Y14.472 E0.93642
G1 X11.803 Y14.472 E0.07912
G1 X4.360 Y7.028 E0.93642
G1 X5.250 Y7.028 E0.07912
G1 X12.693 Y14.472 E0.93642
G1 X13.582 Y14.472 E0.07912
G1 X6.139 Y7.028 E0.93642
G1 X7.028 Y7.028 E0.07912
G1 X14.472 Y14.472 E0.93642
G1 X15.361 Y14.472 E0.07912
G1 X7.918 Y7.028 E0.93642
G1 X8.807 Y7.028 E0.07912
G1 X16.250 Y14.472 E0.93642
G1 X17.140 Y14.472 E0.07912
G1 X9.697 Y7.028 E0.93642
G1 X10.586 Y7.028 E0.07912
G1 X18.029 Y14.472 E0.93642
G1 X18.919 Y14.472 E0.07912
G1 X11.475 Y7.028 E0.93642
G1 X12.028 Y6.692 F15000.000
G1 X19.808 Y14.472 E0.97874 F960.000
G1 X20.697 Y14.472 E0.07912
G1 X12.028 Y5.803 E1.09063
G1 X12.028 Y4.913 E0.07912
G1 X21.587 Y14.472 E1.20253
G1 X22.476 Y14.472 E0.07912
G1 X12.028 Y4.024 E1.31442
G1 X12.028 Y3.134 E0.07912
G1 X23.366 Y14.472 E1.42631
G1 X24.255 Y14.472 E0.07912
G1 X12.028 Y2.245 E1.53821
G1 X12.028 Y1.356 E0.07912
G1 X25.144 Y14.472 E1.65010
G1 X26.034 Y14.472 E0.07912
G1 X12.028 Y0.466 E1.76199
G1 X12.028 Y-0.423 E0.07912
G1 X26.923 Y14.472 E1.87389
G1 X27.813 Y14.472 E0.07912
G1 X12.028 Y-1.313 E1.98578
G1 X12.028 Y-2.202 E0.07912
G1 X28.702 Y14.472 E2.09767
G1 X29.591 Y14.472 E0.07912
G1 X12.028 Y-3.091 E2.20957
G1 X12.028 Y-3.981 E0.07912
G1 X30.481 Y14.472 E2.32146
G1 X31.370 Y14.472 E0.07912
G1 X12.028 Y-4.870 E2.43335
G1 X12.028 Y-5.760 E0.07912
G1 X32.260 Y14.472 E2.54525
G1 X-5.985 Y14.472 F15000.000
G1 X-32.972 Y-12.515 E3.39518 F960.000
G1 X-32.972 Y-11.626 E0.07912
G1 X-6.874 Y14.472 E3.28328
G1 X-7.763 Y14.472 E0.07912
G1 X-32.972 Y-10.737 E3.17139
G1 X-32.972 Y-9.847 E0.07912
G1 X-8.653 Y14.472 E3.05950
G1 X-9.542 Y14.472 E0.07912
G1 X-32.972 Y-8.958 E2.94760
G1 X-32.972 Y-8.068 E0.07912
G1 X-10.432 Y14.472 E2.83571
G1 X-11.321 Y14.472 E0.07912
G1 X-32.972 Y-7.179 E2.72382
G1 X-32.972 Y-6.290 E0.07912
G1 X-12.210 Y14.472 E2.61192
G1 X-13.100 Y14.472 E0.07912
G1 X-32.972 Y-5.400 E2.50003
G1 X-32.972 Y-4.511 E0.07912
G1 X-13.989 Y14.472 E2.38814
G1 X-14.879 Y14.472 E0.07912
G1 X-32.972 Y-3.621 E2.27624
G1 X-32.972 Y-2.732 E0.07912
G1 X-15.768 Y14.472 E2.16435
G1 X-16.657 Y14.472 E0.07912
G1 X-32.972 Y-1.843 E2.05246
G1 X-32.972 Y-0.953 E0.07912
G1 X-17.547 Y14.472 E1.94056
G1 X-18.436 Y14.472 E0.07912
G1 X-32.972 Y-0.064 E1.82867
G1 X-32.972 Y0.826 E0.07912
G1 X-19.326 Y14.472 E1.71678
G1 X-20.215 Y14.472 E0.07912
G1 X-32.972 Y1.715 E1.60488
G1 X-32.972 Y2.604 E0.07912
G1 X-21.104 Y14.472 E1.49299
G1 X-21.994 Y14.472 E0.07912
G1 X-32.972 Y3.494 E1.38110
G1 X-32.972 Y4.383 E0.07912
G1 X-22.883 Y14.472 E1.26920
G1 X-23.773 Y14.472 E0.07912
G1 X-32.972 Y5.273 E1.15731
G1 X-32.972 Y6.162 E0.07912
G1 X-24.662 Y14.472 E1.04542
G1 X-25.551 Y14.472 E0.07912
G1 X-32.972 Y7.051 E0.93352
G1 X-32.972 Y7.941 E0.07912
G1 X-26.441 Y14.472 E0.82163
G1 X-27.330 Y14.472 E0.07912
G1 X-32.972 Y8.830 E0.70974
G1 X-32.972 Y9.720 E0.07912
G1 X-28.220 Y14.472 E0.59785
G1 X-29.109 Y14.472 E0.07912
G1 X-32.972 Y10.609 E0.48595
G1 X-32.972 Y11.498 E0.07912
G1 X-29.998 Y14.472 E0.37406
G1 X-30.888 Y14.472 E0.07912
G1 X-32.972 Y12.388 E0.26217
G1 X-32.972 Y13.277 E0.07912
G1 X-31.777 Y14.472 E0.15027
G1 X-32.667 Y14.472 E0.07912
G1 X-32.972 Y14.167 E0.03838
M104 S246 ; set temperature
G1 E-3.20000 F3000.00000
G1 Z0.750 F15000.000
G1 X-10.964 Y5.964 F15000.000
G1 Z0.550 F15000.000
G1 E3.20000 F3000.00000
G1 X-10.964 Y-5.964 E0.34428 F4800.000
G1 X10.964 Y-5.964 E0.63291 F4800.000
G1 X10.964 Y5.964 E0.34428
G1 X-10.904 Y5.964 E0.63118
G1 X-10.607 Y5.607 F15000.000
G1 X-10.607 Y-5.607 E0.32367 F4800.000
G1 X10.607 Y-5.607 E0.61230 F4800.000
G1 X10.607 Y5.607 E0.32367
G1 X-10.547 Y5.607 E0.61057
G1 X-10.250 Y5.250 F15000.000
G1 X-10.250 Y-5.250 E0.30306 F4800.000
G1 X10.250 Y-5.250 E0.59168 F4800.000
G1 X10.250 Y5.250 E0.30306
G1 X-10.190 Y5.250 E0.58995
G1 X-10.650 Y5.250 F15000.000
G1 E-3.20000 F3000.00000
G1 Z0.950 F15000.000
G1 X21.273 Y-15.536 F15000.000
G1 Z0.550 F15000.000
G1 E3.20000 F3000.00000
G1 X34.036 Y-15.536 E0.36837 F4800.000
G1 X34.036 Y15.536 E0.89681
G1 X-34.036 Y15.536 E1.96473
G1 X-34.036 Y-15.536 E0.89681
G1 X-7.464 Y-15.536 E0.76693
G1 X-7.464 Y-12.436 E0.08947
G1 X7.464 Y-12.436 E0.43087 F4800.000
G1 X7.464 Y-15.536 E0.08947
G1 X21.213 Y-15.536 E0.39683
G1 X21.213 Y-15.893 F15000.000
G1 X34.393 Y-15.893 E0.38041 F4800.000
G1 X34.393 Y15.893 E0.91742
G1 X-34.393 Y15.893 E1.98534
G1 X-34.393 Y-15.893 E0.91742
G1 X-7.107 Y-15.893 E0.78754
G1 X-7.107 Y-12.793 E0.08947
G1 X7.107 Y-12.793 E0.41026 F4800.000
G1 X7.107 Y-15.893 E0.08947
G1 X21.153 Y-15.893 E0.40540
G1 X21.153 Y-16.250 F15000.000
G1 X34.750 Y-16.250 E0.39244 F4800.000
G1 X34.750 Y16.250 E0.93804
G1 X-34.750 Y16.250 E2.00596
G1 X-34.750 Y-16.250 E0.93804
G1 X-6.750 Y-16.250 E0.80816
G1 X-6.750 Y-13.150 E0.08947
G1 X6.750 Y-13.150 E0.38965 F4800.000
G1 X6.750 Y-16.250 E0.08947
G1 X21.093 Y-16.250 E0.41398
G1 X21.353 Y-15.904 F15000.000
G1 X11.522 Y-15.328 F15000.000
G1 X2.366 Y-6.172 E0.37553 F4800.000
G1 X2.874 Y-6.172 E0.01472
G1 X12.030 Y-15.328 E0.37553
G1 X12.537 Y-15.328 E0.01472
G1 X3.381 Y-6.172 E0.37553
G1 X3.888 Y-6.172 E0.01472
G1 X13.045 Y-15.328 E0.37553
G1 X13.552 Y-15.328 E0.01472
G1 X4.396 Y-6.172 E0.37553
G1 X4.903 Y-6.172 E0.01472
G1 X14.059 Y-15.328 E0.37553
G1 X14.567 Y-15.328 E0.01472
G1 X5.411 Y-6.172 E0.37553
G1 X5.918 Y-6.172 E0.01472
G1 X15.074 Y-15.328 E0.37553
G1 X15.582 Y-15.328 E0.01472
G1 X6.426 Y-6.172 E0.37553
G1 X6.933 Y-6.172 E0.01472
G1 X16.089 Y-15.328 E0.37553
G1 X16.597 Y-15.328 E0.01472
G1 X7.440 Y-6.172 E0.37553
G1 X7.948 Y-6.172 E0.01472
G1 X17.104 Y-15.328 E0.37553
G1 X17.611 Y-15.328 E0.01472
G1 X8.455 Y-6.172 E0.37553
G1 X8.963 Y-6.172 E0.01472
G1 X18.119 Y-15.328 E0.37553
G1 X18.626 Y-15.328 E0.01472
G1 X9.470 Y-6.172 E0.37553
G1 X9.977 Y-6.172 E0.01472
G1 X19.134 Y-15.328 E0.37553
G1 X19.641 Y-15.328 E0.01472
G1 X10.485 Y-6.172 E0.37553
G1 X10.992 Y-6.172 E0.01472
G1 X20.148 Y-15.328 E0.37553
G1 X20.656 Y-15.328 E0.01472
G1 X11.172 Y-5.844 E0.38897
G1 X11.172 Y-5.337 E0.01472
G1 X21.163 Y-15.328 E0.40978
G1 X21.671 Y-15.328 E0.01472
G1 X11.172 Y-4.829 E0.43059
G1 X11.172 Y-4.322 E0.01472
G1 X22.178 Y-15.328 E0.45140
G1 X22.685 Y-15.328 E0.01472
G1 X11.172 Y-3.815 E0.47221
G1 X11.172 Y-3.307 E0.01472
G1 X23.193 Y-15.328 E0.49302
G1 X23.700 Y-15.328 E0.01472
G1 X11.172 Y-2.800 E0.51383
G1 X11.172 Y-2.292 E0.01472
G1 X24.208 Y-15.328 E0.53464
G1 X24.715 Y-15.328 E0.01472
G1 X11.172 Y-1.785 E0.55545
G1 X11.172 Y-1.278 E0.01472
G1 X25.222 Y-15.328 E0.57626
G1 X25.730 Y-15.328 E0.01472
G1 X11.172 Y-0.770 E0.59707
G1 X11.172 Y-0.263 E0.01472
G1 X26.237 Y-15.328 E0.61788
G1 X26.745 Y-15.328 E0.01472
G1 X11.172 Y0.245 E0.63870
G1 X11.172 Y0.752 E0.01472
G1 X27.252 Y-15.328 E0.65951
G1 X27.759 Y-15.328 E0.01472
G1 X11.172 Y1.259 E0.68032
G1 X11.172 Y1.767 E0.01472
G1 X28.267 Y-15.328 E0.70113
G1 X28.774 Y-15.328 E0.01472
G1 X11.172 Y2.274 E0.72194
G1 X11.172 Y2.782 E0.01472
G1 X29.282 Y-15.328 E0.74275
G1 X29.789 Y-15.328 E0.01472
G1 X11.172 Y3.289 E0.76356
G1 X11.172 Y3.797 E0.01472
G1 X30.297 Y-15.328 E0.78437
