; generated by Slic3r 1.2.9 on 2022-01-12 at 07:11:15

; external perimeters extrusion width = 0.40mm
; perimeters extrusion width = 0.40mm
; infill extrusion width = 0.40mm
; solid infill extrusion width = 0.40mm
; top infill extrusion width = 0.40mm

M107
M104 S250 ; set temperature
M83
T0
M116


M109 S250 ; wait for temperature to be reached
G21 ; set units to millimeters
G90 ; use absolute coordinates
M83 ; use relative distances for extrusion
G1 E-3.20000 F3000.00000
G1 Z0.400 F15000.000
G1 X0.000 Y20.600 F15000.000
G1 Z0.350 F15000.000
G1 E3.20000 F3000.00000
G1 X-34.950 Y20.600 E3.08930 F960.000
G1 X-36.740 Y20.204 E0.16202
G1 X-38.197 Y19.092 E0.16202
G1 X-39.050 Y17.470 E0.16202
G1 X-39.200 Y16.350 E0.09986
G1 X-39.200 Y-16.350 E2.89042
G1 X-38.804 Y-18.140 E0.16202
G1 X-37.692 Y-19.597 E0.16202
G1 X-36.070 Y-20.450 E0.16202
G1 X-34.950 Y-20.600 E0.09986
G1 X34.950 Y-20.600 E6.17860
G1 X36.740 Y-20.204 E0.16202
G1 X38.197 Y-19.092 E0.16202 F960.000
G1 X39.050 Y-17.470 E0.16202
G1 X39.200 Y-16.350 E0.09986
G1 X39.200 Y16.350 E2.89042
G1 X38.804 Y18.140 E0.16202
G1 X37.692 Y19.597 E0.16202
G1 X36.070 Y20.450 E0.16202
G1 X34.950 Y20.600 E0.09986
G1 X0.060 Y20.600 E3.08399
G1 X0.060 Y19.975 F15000.000
G1 X-34.950 Y19.975 E3.09460 F960.000
G1 X-36.594 Y19.580 E0.14948
G1 X-37.881 Y18.483 E0.14948
G1 X-38.575 Y16.350 E0.19825
G1 X-38.575 Y-16.350 E2.89042
G1 X-38.180 Y-17.994 E0.14948
G1 X-37.083 Y-19.281 E0.14948
G1 X-34.950 Y-19.975 E0.19825
G1 X34.950 Y-19.975 E6.17860
G1 X36.594 Y-19.580 E0.14948
G1 X37.881 Y-18.483 E0.14948 F960.000
G1 X38.575 Y-16.350 E0.19825
G1 X38.575 Y16.350 E2.89042
G1 X38.180 Y17.994 E0.14948
G1 X37.083 Y19.281 E0.14948
G1 X34.950 Y19.975 E0.19825
G1 X0.120 Y19.975 E3.07869
G1 E-3.20000 F3000.00000
G1 Z0.750 F15000.000
G1 X0.120 Y6.650 F15000.000
G1 Z0.350 F15000.000
G1 E3.20000 F3000.00000
G1 X-11.650 Y6.650 E1.04035 F960.000
G1 X-11.650 Y-6.650 E1.17557
G1 X11.650 Y-6.650 E2.05949 F960.000
G1 X11.650 Y6.650 E1.17557
G1 X0.180 Y6.650 E1.01384
G1 X0.180 Y6.025 F15000.000
G1 X-11.025 Y6.025 E0.99042 F960.000
G1 X-11.025 Y-6.025 E1.06510
G1 X11.025 Y-6.025 E1.94902 F960.000
G1 X11.025 Y6.025 E1.06510
G1 X0.240 Y6.025 E0.95330
G1 X0.240 Y5.400 F15000.000
G1 X-10.400 Y5.400 E0.94049 F960.000
G1 X-10.400 Y-5.400 E0.95463
G1 X10.400 Y-5.400 E1.83855 F960.000
G1 X10.400 Y5.400 E0.95463
G1 X0.300 Y5.400 E0.89276
G1 X0.040 Y5.746 F15000.000
G1 E-3.20000 F3000.00000
G1 Z0.750 F15000.000
G1 X-33.350 Y-0.064 F15000.000
G1 Z0.350 F15000.000
G1 E3.20000 F3000.00000
G1 X-33.350 Y-14.750 E1.29817 F960.000
G1 X-8.150 Y-14.750 E2.22752
G1 X-8.150 Y-11.650 E0.27401
G1 X8.150 Y-11.650 E1.44075 F960.000
G1 X8.150 Y-14.750 E0.27401
G1 X33.350 Y-14.750 E2.22752
G1 X33.350 Y14.750 E2.60760
G1 X-33.350 Y14.750 E5.89578
G1 X-33.350 Y-0.004 E1.30413
G1 X-33.975 Y-0.004 F15000.000
G1 X-33.975 Y-15.375 E1.35871 F960.000
G1 X-7.525 Y-15.375 E2.33799
G1 X-7.525 Y-12.275 E0.27401
G1 X7.525 Y-12.275 E1.33028 F960.000
G1 X7.525 Y-15.375 E0.27401
G1 X33.975 Y-15.375 E2.33799
G1 X33.975 Y15.375 E2.71807
G1 X-33.975 Y15.375 E6.00625
G1 X-33.975 Y0.056 E1.35406
G1 X-34.600 Y0.056 F15000.000
G1 X-34.600 Y-16.000 E1.41925 F960.000
G1 X-6.900 Y-16.000 E2.44846
G1 X-6.900 Y-12.900 E0.27401
G1 X6.900 Y-12.900 E1.21981 F960.000
G1 X6.900 Y-16.000 E0.27401
G1 X34.600 Y-16.000 E2.44846
G1 X34.600 Y16.000 E2.82854
G1 X-34.600 Y16.000 E6.11672
G1 X-34.600 Y0.116 E1.40399
G1 X-34.254 Y-0.144 F15000.000
G1 X-32.972 Y14.067 F15000.000
G1 X-32.667 Y14.372 E0.03830 F960.000
G1 X-31.779 Y14.372 E0.07879
G1 X-32.972 Y13.179 E0.14972
G1 X-32.972 Y12.292 E0.07879
G1 X-30.892 Y14.372 E0.26114
G1 X-30.004 Y14.372 E0.07879
G1 X-32.972 Y11.404 E0.37255
G1 X-32.972 Y10.517 E0.07879
G1 X-29.117 Y14.372 E0.48397
G1 X-28.229 Y14.372 E0.07879
G1 X-32.972 Y9.629 E0.59539
G1 X-32.972 Y8.742 E0.07879
G1 X-27.342 Y14.372 E0.70681
G1 X-26.454 Y14.372 E0.07879
G1 X-32.972 Y7.854 E0.81823
G1 X-32.972 Y6.966 E0.07879
G1 X-25.566 Y14.372 E0.92965
G1 X-24.679 Y14.372 E0.07879
G1 X-32.972 Y6.079 E1.04107
G1 X-32.972 Y5.191 E0.07879
G1 X-23.791 Y14.372 E1.15249
G1 X-22.904 Y14.372 E0.07879
G1 X-32.972 Y4.304 E1.26391
G1 X-32.972 Y3.416 E0.07879
G1 X-22.016 Y14.372 E1.37533
G1 X-21.129 Y14.372 E0.07879
G1 X-32.972 Y2.529 E1.48674
G1 X-32.972 Y1.641 E0.07879
G1 X-20.241 Y14.372 E1.59816
G1 X-19.354 Y14.372 E0.07879
G1 X-32.972 Y0.754 E1.70958
G1 X-32.972 Y-0.134 E0.07879
G1 X-18.466 Y14.372 E1.82100
G1 X-17.579 Y14.372 E0.07879
G1 X-32.972 Y-1.021 E1.93242
G1 X-32.972 Y-1.909 E0.07879
G1 X-16.691 Y14.372 E2.04384
G1 X-15.804 Y14.372 E0.07879
G1 X-32.972 Y-2.796 E2.15526
G1 X-32.972 Y-3.684 E0.07879
G1 X-14.916 Y14.372 E2.26668
G1 X-14.029 Y14.372 E0.07879
G1 X-32.972 Y-4.571 E2.37810
G1 X-32.972 Y-5.459 E0.07879
G1 X-13.141 Y14.372 E2.48952
G1 X-12.254 Y14.372 E0.07879
G1 X-32.972 Y-6.346 E2.60093
G1 X-32.972 Y-7.234 E0.07879
G1 X-11.366 Y14.372 E2.71235
G1 X-10.479 Y14.372 E0.07879
G1 X-32.972 Y-8.121 E2.82377
G1 X-32.972 Y-9.009 E0.07879
G1 X-9.591 Y14.372 E2.93519
G1 X-8.704 Y14.372 E0.07879
G1 X-32.972 Y-9.896 E3.04661
G1 X-32.972 Y-10.784 E0.07879
G1 X-7.816 Y14.372 E3.15803
G1 X-6.929 Y14.372 E0.07879
G1 X-32.972 Y-11.671 E3.26945
G1 X-32.972 Y-12.559 E0.07879
G1 X-6.041 Y14.372 E3.38087
G1 X11.466 Y7.028 F15000.000
G1 X18.809 Y14.372 E0.92188 F960.000
G1 X17.922 Y14.372 E0.07879
G1 X10.578 Y7.028 E0.92188
G1 X9.691 Y7.028 E0.07879
G1 X17.034 Y14.372 E0.92188
G1 X16.147 Y14.372 E0.07879
G1 X8.803 Y7.028 E0.92188
G1 X7.916 Y7.028 E0.07879
G1 X15.259 Y14.372 E0.92188
G1 X14.372 Y14.372 E0.07879
G1 X7.028 Y7.028 E0.92188
G1 X6.141 Y7.028 E0.07879
G1 X13.484 Y14.372 E0.92188
G1 X12.597 Y14.372 E0.07879
G1 X5.253 Y7.028 E0.92188
G1 X4.366 Y7.028 E0.07879
G1 X11.709 Y14.372 E0.92188
G1 X10.822 Y14.372 E0.07879
G1 X3.478 Y7.028 E0.92188
G1 X2.591 Y7.028 E0.07879
G1 X9.934 Y14.372 E0.92188
G1 X9.047 Y14.372 E0.07879
G1 X1.703 Y7.028 E0.92188
G1 X0.816 Y7.028 E0.07879
G1 X8.159 Y14.372 E0.92188
G1 X7.272 Y14.372 E0.07879
G1 X-0.072 Y7.028 E0.92188
G1 X-0.959 Y7.028 E0.07879
G1 X6.384 Y14.372 E0.92188
G1 X5.496 Y14.372 E0.07879
G1 X-1.847 Y7.028 E0.92188
G1 X-2.734 Y7.028 E0.07879
G1 X4.609 Y14.372 E0.92188
G1 X3.721 Y14.372 E0.07879
G1 X-3.622 Y7.028 E0.92188
G1 X-4.509 Y7.028 E0.07879
G1 X2.834 Y14.372 E0.92188
G1 X1.946 Y14.372 E0.07879
G1 X-5.397 Y7.028 E0.92188
G1 X-6.284 Y7.028 E0.07879
G1 X1.059 Y14.372 E0.92188
G1 X0.171 Y14.372 E0.07879
G1 X-7.172 Y7.028 E0.92188
G1 X-8.059 Y7.028 E0.07879
G1 X-0.716 Y14.372 E0.92188
G1 X-1.604 Y14.372 E0.07879
G1 X-8.947 Y7.028 E0.92188
G1 X-9.834 Y7.028 E0.07879
G1 X-2.491 Y14.372 E0.92188
G1 X-3.379 Y14.372 E0.07879
G1 X-10.722 Y7.028 E0.92188
G1 X-11.609 Y7.028 E0.07879
G1 X-4.266 Y14.372 E0.92188
G1 X-5.154 Y14.372 E0.07879
G1 X-32.972 Y-13.446 E3.49229
G1 X-32.971 Y-14.333 E0.07869
G1 X-12.028 Y6.609 E2.62910
G1 X-12.028 Y5.722 E0.07879
G1 X-32.122 Y-14.372 E2.52256
G1 X-31.234 Y-14.372 E0.07879
G1 X-12.028 Y4.834 E2.41114
G1 X-12.028 Y3.947 E0.07879
G1 X-30.347 Y-14.372 E2.29972
G1 X-29.459 Y-14.372 E0.07879
G1 X-12.028 Y3.059 E2.18830
G1 X-12.028 Y2.172 E0.07879
G1 X-28.572 Y-14.372 E2.07689
G1 X-27.684 Y-14.372 E0.07879
G1 X-12.028 Y1.284 E1.96547
G1 X-12.028 Y0.397 E0.07879
G1 X-26.797 Y-14.372 E1.85405
G1 X-25.909 Y-14.372 E0.07879
G1 X-12.028 Y-0.491 E1.74263
G1 X-12.028 Y-1.378 E0.07879
G1 X-25.022 Y-14.372 E1.63121
G1 X-24.134 Y-14.372 E0.07879
G1 X-12.028 Y-2.266 E1.51979
G1 X-12.028 Y-3.153 E0.07879
G1 X-23.247 Y-14.372 E1.40837
G1 X-22.359 Y-14.372 E0.07879
G1 X-12.028 Y-4.041 E1.29695
G1 X-12.028 Y-4.928 E0.07879
G1 X-21.472 Y-14.372 E1.18553
G1 X-20.584 Y-14.372 E0.07879
G1 X-12.028 Y-5.816 E1.07411
G1 X-12.028 Y-6.703 E0.07879
G1 X-19.697 Y-14.372 E0.96270
G1 X-18.809 Y-14.372 E0.07879
G1 X-11.466 Y-7.028 E0.92188
G1 X-10.578 Y-7.028 E0.07879
G1 X-17.922 Y-14.372 E0.92188
G1 X-17.034 Y-14.372 E0.07879
G1 X-9.691 Y-7.028 E0.92188
G1 X-8.803 Y-7.028 E0.07879
G1 X-16.147 Y-14.372 E0.92188
G1 X-15.259 Y-14.372 E0.07879
G1 X-7.916 Y-7.028 E0.92188
G1 X-7.028 Y-7.028 E0.07879
G1 X-14.372 Y-14.372 E0.92188
G1 X-13.484 Y-14.372 E0.07879
G1 X-6.141 Y-7.028 E0.92188
G1 X-5.253 Y-7.028 E0.07879
G1 X-12.597 Y-14.372 E0.92188
G1 X-8.528 Y-13.853 F15000.000
G1 X-9.047 Y-14.372 E0.06506 F960.000
G1 X-9.934 Y-14.372 E0.07879
G1 X-8.528 Y-12.966 E0.17648
G1 X-8.528 Y-12.078 E0.07879
G1 X-10.822 Y-14.372 E0.28790
G1 X-11.709 Y-14.372 E0.07879
G1 X-4.366 Y-7.028 E0.92188
G1 X-3.478 Y-7.028 E0.07879
G1 X-7.722 Y-11.272 E0.53271
G1 X-6.834 Y-11.272 E0.07879
G1 X-2.591 Y-7.028 E0.53271
G1 X-1.703 Y-7.028 E0.07879
G1 X-5.947 Y-11.272 E0.53271
G1 X-5.059 Y-11.272 E0.07879
G1 X-0.816 Y-7.028 E0.53271
G1 X0.072 Y-7.028 E0.07879
G1 X-4.172 Y-11.272 E0.53271
G1 X-3.284 Y-11.272 E0.07879
G1 X0.959 Y-7.028 E0.53271
G1 X1.847 Y-7.028 E0.07879
G1 X-2.397 Y-11.272 E0.53271
G1 X-1.509 Y-11.272 E0.07879
G1 X2.734 Y-7.028 E0.53271
G1 X3.622 Y-7.028 E0.07879
G1 X-0.622 Y-11.272 E0.53271
G1 X0.266 Y-11.272 E0.07879
G1 X4.509 Y-7.028 E0.53271
G1 X5.397 Y-7.028 E0.07879
G1 X1.154 Y-11.272 E0.53271
G1 X2.041 Y-11.272 E0.07879
G1 X6.284 Y-7.028 E0.53271
G1 X7.172 Y-7.028 E0.07879
G1 X2.929 Y-11.272 E0.53271
G1 X3.816 Y-11.272 E0.07879
G1 X8.059 Y-7.028 E0.53271
G1 X8.947 Y-7.028 E0.07879
G1 X4.704 Y-11.272 E0.53271
G1 X5.591 Y-11.272 E0.07879
G1 X9.834 Y-7.028 E0.53271
G1 X10.722 Y-7.028 E0.07879
G1 X6.479 Y-11.272 E0.53271
G1 X7.366 Y-11.272 E0.07879
G1 X11.609 Y-7.028 E0.53271
G1 X12.028 Y-6.609 F15000.000
G1 X32.971 Y14.333 E2.62909 F960.000
G1 X32.972 Y13.446 E0.07869
G1 X8.254 Y-11.272 E3.10312
G1 X8.528 Y-11.884 F15000.000
G1 X32.972 Y12.559 E3.06863 F960.000
G1 X32.972 Y11.671 E0.07879
G1 X8.528 Y-12.772 E3.06863
G1 X8.528 Y-13.659 E0.07879
G1 X32.972 Y10.784 E3.06863
G1 X32.972 Y9.896 E0.07879
G1 X8.704 Y-14.372 E3.04662
G1 X9.591 Y-14.372 E0.07879
G1 X32.972 Y9.009 E2.93520
G1 X32.972 Y8.121 E0.07879
G1 X10.479 Y-14.372 E2.82378
G1 X11.366 Y-14.372 E0.07879
G1 X32.972 Y7.234 E2.71236
G1 X32.972 Y6.346 E0.07879
G1 X12.254 Y-14.372 E2.60094
G1 X13.141 Y-14.372 E0.07879
G1 X32.972 Y5.459 E2.48952
G1 X32.972 Y4.571 E0.07879
G1 X14.029 Y-14.372 E2.37810
G1 X14.916 Y-14.372 E0.07879
G1 X32.972 Y3.684 E2.26668
G1 X32.972 Y2.796 E0.07879
G1 X15.804 Y-14.372 E2.15527
G1 X16.691 Y-14.372 E0.07879
G1 X32.972 Y1.909 E2.04385
G1 X32.972 Y1.021 E0.07879
G1 X17.579 Y-14.372 E1.93243
G1 X18.466 Y-14.372 E0.07879
G1 X32.972 Y0.134 E1.82101
G1 X32.972 Y-0.754 E0.07879
G1 X19.354 Y-14.372 E1.70959
G1 X20.241 Y-14.372 E0.07879
G1 X32.972 Y-1.641 E1.59817
G1 X32.972 Y-2.529 E0.07879
G1 X21.129 Y-14.372 E1.48675
G1 X22.016 Y-14.372 E0.07879
G1 X32.972 Y-3.416 E1.37533
G1 X32.972 Y-4.304 E0.07879
G1 X22.904 Y-14.372 E1.26391
G1 X23.791 Y-14.372 E0.07879
G1 X32.972 Y-5.191 E1.15249
G1 X32.972 Y-6.079 E0.07879
G1 X24.679 Y-14.372 E1.04108
G1 X25.566 Y-14.372 E0.07879
G1 X32.972 Y-6.966 E0.92966
G1 X32.972 Y-7.854 E0.07879
G1 X26.454 Y-14.372 E0.81824
G1 X27.341 Y-14.372 E0.07879
G1 X32.972 Y-8.741 E0.70682
G1 X32.972 Y-9.629 E0.07879
G1 X28.229 Y-14.372 E0.59540
G1 X29.116 Y-14.372 E0.07879
G1 X32.972 Y-10.516 E0.48398
G1 X32.972 Y-11.404 E0.07879
G1 X30.004 Y-14.372 E0.37256
G1 X30.891 Y-14.372 E0.07879
G1 X32.972 Y-12.292 E0.26114
G1 X32.972 Y-13.179 E0.07879
G1 X31.779 Y-14.372 E0.14972
G1 X32.667 Y-14.372 E0.07879
G1 X32.972 Y-14.067 E0.03830
G1 X32.122 Y14.372 F15000.000
G1 X12.028 Y-5.722 E2.52255 F960.000
G1 X12.028 Y-4.834 E0.07879
G1 X31.234 Y14.372 E2.41114
G1 X30.347 Y14.372 E0.07879
G1 X12.028 Y-3.947 E2.29972
G1 X12.028 Y-3.059 E0.07879
G1 X29.459 Y14.372 E2.18830
G1 X28.572 Y14.372 E0.07879
G1 X12.028 Y-2.172 E2.07688
G1 X12.028 Y-1.284 E0.07879
G1 X27.684 Y14.372 E1.96546
G1 X26.797 Y14.372 E0.07879
G1 X12.028 Y-0.397 E1.85404
G1 X12.028 Y0.491 E0.07879
G1 X25.909 Y14.372 E1.74262
G1 X25.022 Y14.372 E0.07879
G1 X12.028 Y1.378 E1.63120
G1 X12.028 Y2.266 E0.07879
G1 X24.134 Y14.372 E1.51978
G1 X23.247 Y14.372 E0.07879
G1 X12.028 Y3.153 E1.40836
G1 X12.028 Y4.041 E0.07879
G1 X22.359 Y14.372 E1.29695
G1 X21.472 Y14.372 E0.07879
G1 X12.028 Y4.928 E1.18553
G1 X12.028 Y5.816 E0.07879
G1 X20.584 Y14.372 E1.07411
G1 X19.697 Y14.372 E0.07879
G1 X12.028 Y6.703 E0.96269
M104 S246 ; set temperature
G1 E-3.20000 F3000.00000
G1 Z0.750 F15000.000
G1 X10.964 Y5.964 F15000.000
G1 Z0.550 F15000.000
G1 E3.20000 F3000.00000
G1 X-10.964 Y5.964 E0.63291 F4800.000
G1 X-10.964 Y-5.964 E0.34428
G1 X10.964 Y-5.964 E0.63291 F4800.000
G1 X10.964 Y5.904 E0.34255
G1 X10.607 Y5.607 F15000.000
G1 X-10.607 Y5.607 E0.61230 F4800.000
G1 X-10.607 Y-5.607 E0.32367
G1 X10.607 Y-5.607 E0.61230 F4800.000
G1 X10.607 Y5.547 E0.32194
G1 X10.250 Y5.250 F15000.000
G1 X-10.250 Y5.250 E0.59168 F4800.000
G1 X-10.250 Y-5.250 E0.30306
G1 X10.250 Y-5.250 E0.59168 F4800.000
G1 X10.250 Y5.190 E0.30133
G1 X10.250 Y5.650 F15000.000
G1 E-3.20000 F3000.00000
G1 Z0.950 F15000.000
G1 X-7.679 Y-15.436 F15000.000
G1 Z0.550 F15000.000
G1 E3.20000 F3000.00000
G1 X-7.464 Y-15.436 E0.00619 F4800.000
G1 X-7.464 Y-12.336 E0.08947
G1 X7.464 Y-12.336 E0.43087 F4800.000
G1 X7.464 Y-15.436 E0.08947
G1 X34.036 Y-15.436 E0.76693
G1 X34.036 Y15.436 E0.89104
G1 X-34.036 Y15.436 E1.96473
G1 X-34.036 Y-15.436 E0.89104
G1 X-7.739 Y-15.436 E0.75901
G1 X-7.739 Y-15.793 F15000.000
G1 X-7.107 Y-15.793 E0.01823 F4800.000
G1 X-7.107 Y-12.693 E0.08947
G1 X7.107 Y-12.693 E0.41026 F4800.000
G1 X7.107 Y-15.793 E0.08947
G1 X34.393 Y-15.793 E0.78754
G1 X34.393 Y15.793 E0.91165
G1 X-34.393 Y15.793 E1.98534
G1 X-34.393 Y-15.793 E0.91165
G1 X-7.799 Y-15.793 E0.76758
G1 X-7.799 Y-16.150 F15000.000
G1 X-6.750 Y-16.150 E0.03027 F4800.000
G1 X-6.750 Y-13.050 E0.08947
G1 X6.750 Y-13.050 E0.38965 F4800.000
G1 X6.750 Y-16.150 E0.08947
G1 X34.750 Y-16.150 E0.80816
G1 X34.750 Y16.150 E0.93226
G1 X-34.750 Y16.150 E2.00596
G1 X-34.750 Y-16.150 E0.93226
G1 X-7.859 Y-16.150 E0.77616
G1 X-7.599 Y-15.804 F15000.000
G1 X-7.672 Y-12.330 F15000.000
G1 X-33.828 Y13.826 E1.07057 F4800.000
G1 X-33.828 Y13.320 E0.01466
G1 X-7.672 Y-12.836 E1.07057
G1 X-7.672 Y-13.343 E0.01466
G1 X-33.828 Y12.814 E1.07057
G1 X-33.828 Y12.307 E0.01466
G1 X-7.672 Y-13.849 E1.07057
G1 X-7.672 Y-14.355 E0.01466
G1 X-33.828 Y11.801 E1.07057
G1 X-33.828 Y11.295 E0.01466
G1 X-7.672 Y-14.862 E1.07057
G1 X-7.812 Y-15.228 E0.01135
G1 X-33.828 Y10.788 E1.06484
G1 X-33.828 Y10.282 E0.01466
G1 X-8.318 Y-15.228 E1.04411
G1 X-8.825 Y-15.228 E0.01466
G1 X-33.828 Y9.775 E1.02339
G1 X-33.828 Y9.269 E0.01466
G1 X-9.331 Y-15.228 E1.00266
G1 X-9.837 Y-15.228 E0.01466
G1 X-33.828 Y8.763 E0.98194
G1 X-33.828 Y8.256 E0.01466
G1 X-10.344 Y-15.228 E0.96121
G1 X-10.850 Y-15.228 E0.01466
G1 X-33.828 Y7.750 E0.94049
G1 X-33.828 Y7.244 E0.01466
G1 X-11.356 Y-15.228 E0.91976
G1 X-11.863 Y-15.228 E0.01466
G1 X-33.828 Y6.737 E0.89904
G1 X-33.828 Y6.231 E0.01466
G1 X-12.369 Y-15.228 E0.87831
G1 X-12.876 Y-15.228 E0.01466
G1 X-33.828 Y5.724 E0.85758
G1 X-33.828 Y5.218 E0.01466
G1 X-13.382 Y-15.228 E0.83686
G1 X-13.888 Y-15.228 E0.01466
G1 X-33.828 Y4.712 E0.81613
G1 X-33.828 Y4.205 E0.01466
G1 X-14.395 Y-15.228 E0.79541
G1 X-14.901 Y-15.228 E0.01466
G1 X-33.828 Y3.699 E0.77468
G1 X-33.828 Y3.193 E0.01466
G1 X-15.407 Y-15.228 E0.75396
G1 X-15.914 Y-15.228 E0.01466
G1 X-33.828 Y2.686 E0.73323
G1 X-33.828 Y2.180 E0.01466
G1 X-16.420 Y-15.228 E0.71250
G1 X-16.927 Y-15.228 E0.01466
G1 X-33.828 Y1.673 E0.69178
G1 X-33.828 Y1.167 E0.01466
G1 X-17.433 Y-15.228 E0.67105
G1 X-17.939 Y-15.228 E0.01466
G1 X-33.828 Y0.661 E0.65033
G1 X-33.828 Y0.154 E0.01466
G1 X-18.446 Y-15.228 E0.62960
G1 X-18.952 Y-15.228 E0.01466
G1 X-33.828 Y-0.352 E0.60888
G1 X-33.828 Y-0.858 E0.01466
G1 X-19.458 Y-15.228 E0.58815
G1 X-19.965 Y-15.228 E0.01466
G1 X-33.828 Y-1.365 E0.56742
G1 X-33.828 Y-1.871 E0.01466
G1 X-20.471 Y-15.228 E0.54670
G1 X-20.978 Y-15.228 E0.01466
G1 X-33.828 Y-2.378 E0.52597
G1 X-33.828 Y-2.884 E0.01466
G1 X-21.484 Y-15.228 E0.50525
G1 X-21.990 Y-15.228 E0.01466
G1 X-33.828 Y-3.390 E0.48452
G1 X-33.828 Y-3.897 E0.01466
G1 X-22.497 Y-15.228 E0.46380
G1 X-23.003 Y-15.228 E0.01466
